X: 40704
T: Tory Island Highland, The
R: strathspey
M: 4/4
K: Gmajor
|:BDD2 EGGB|dBB2 A2GA|BDD2 EGGB|1 dBA2 G2GA:|2 dBA2 G3z||
Bdd2 egge|dBB2 A2GA|Bdd2 egge|dBA2 G3z|
Bdd2 egge|d2dB A2GA|BDD2 EGGB|dBA2 G2GA||

